Newaita-dark/apps/16/com.github.bcedu.shutdownscheduler.svg

<svg height="16pt" viewBox="0 0 16 16" width="16pt" xmlns="http://www.w3.org/2000/svg" xmlns:xlink="http://www.w3.org/1999/xlink"><linearGradient id="a"><stop offset="0" stop-opacity=".313725"/><stop offset=".222222" stop-opacity=".27451"/><stop offset="1" stop-opacity="0"/></linearGradient><radialGradient id="b" cx="450.90894" cy="189.57936" gradientTransform="matrix(.00000009 -.0390662 -.0703192 -.00000005 22.261576 31.797666)" gradientUnits="userSpaceOnUse" r="21.166656" xlink:href="#a"/><radialGradient id="c" cx="450.90894" cy="189.57936" gradientTransform="matrix(-.00000009 .0390662 .0703192 .00000005 -6.38506 -3.763741)" gradientUnits="userSpaceOnUse" r="21.166656" xlink:href="#a"/><radialGradient id="d" cx="450.90894" cy="189.57936" gradientTransform="matrix(-.00000009 -.0390662 .0703192 -.00000005 -6.38506 31.797666)" gradientUnits="userSpaceOnUse" r="21.166656" xlink:href="#a"/><radialGradient id="e" cx="450.90894" cy="189.57936" gradientTransform="matrix(.00000009 .0390662 -.0703192 .00000005 22.261575 -3.763741)" gradientUnits="userSpaceOnUse" r="21.166656" xlink:href="#a"/><linearGradient id="f" gradientTransform="matrix(.00668003 0 0 .031253 6.232693 6.719392)" gradientUnits="userSpaceOnUse" x1="255.32306" x2="255.32304" y1="233.5" y2="254.66666"><stop offset="0" stop-opacity=".27451"/><stop offset="1" stop-opacity="0"/></linearGradient><linearGradient id="g" gradientUnits="userSpaceOnUse" x1="254" x2="254" y1="-168.66667" y2="233.5"><stop offset="0" stop-color="#616161"/><stop offset="1" stop-color="#424242"/></linearGradient><linearGradient id="h" gradientUnits="userSpaceOnUse" x1="7.9382592" x2="7.9382592" y1="14.01696629816" y2="1.44805531933"><stop offset="0" stop-color="#bdbdbd"/><stop offset="1" stop-color="#e0e0e0"/></linearGradient><path d="m9.097656 14.015625h1.320313v-.660156h-1.320313zm0 0" fill="url(#b)"/><path d="m6.78125 14.015625h-1.324219v.664063h1.324219zm0 0" fill="url(#c)"/><path d="m6.78125 14.015625h-1.324219v-.660156h1.324219zm0 0" fill="url(#d)"/><path d="m9.097656 14.015625h1.320313v.664063h-1.320313zm0 0" fill="url(#e)"/><path d="m6.78125 13.851562h2.316406v.828126h-2.316406zm0 0" fill="url(#f)"/><path d="m253.975747-168.629428c111.114389 0 201.105795 89.991406 201.105795 201.105795 0 110.989401-89.991406 200.980807-201.105795 200.980807-110.989402 0-201.105796-89.991406-201.105796-200.980807 0-111.114389 90.116394-201.105795 201.105796-201.105795zm0 0" fill="url(#g)" stroke="#333" stroke-linecap="round" stroke-width="3" transform="matrix(.031253 0 0 .031253 0 6.719392)"/><path d="m7.9375 14.015625c-3.480469 0-6.285156-2.800781-6.285156-6.28125 0-.023437 0-.042969 0-.0625.035156 3.453125 2.824218 6.222656 6.285156 6.222656s6.253906-2.769531 6.285156-6.222656v.0625c0 3.480469-2.804687 6.28125-6.285156 6.28125zm0 0" fill-opacity=".196078"/><path d="m7.9375 1.449219c-3.480469 0-6.285156 2.800781-6.285156 6.285156v.058594c.035156-3.453125 2.824218-6.222657 6.285156-6.222657s6.253906 2.769532 6.285156 6.222657c0-.019531 0-.039063 0-.058594 0-3.484375-2.804687-6.285156-6.285156-6.285156zm0 0" fill="#fff" fill-opacity=".392157"/><path d="m7.9375 1.402344c-3.507812 0-6.332031 2.824218-6.332031 6.332031 0 3.503906 2.824219 6.328125 6.332031 6.328125s6.332031-2.824219 6.332031-6.328125c0-3.507813-2.824219-6.332031-6.332031-6.332031zm0 .09375c3.457031 0 6.238281 2.78125 6.238281 6.238281 0 3.453125-2.78125 6.234375-6.238281 6.234375s-6.238281-2.78125-6.238281-6.234375c0-3.457031 2.78125-6.238281 6.238281-6.238281zm0 0" fill="#212121"/><path d="m7.933594 4.089844c-.183594.003906-.328125.152344-.324219.335937v3.308594c0 .179687.148437.328125.328125.328125h2.316406c.117188.003906.230469-.058594.289063-.164062.0625-.101563.0625-.230469 0-.332032-.058594-.101562-.171875-.164062-.289063-.164062h-1.984375v-2.976563c0-.089843-.035156-.175781-.097656-.238281s-.148437-.097656-.238281-.097656zm1.898437.207031c-.148437.007813-.273437.105469-.308593.25-.039063.140625.023437.289063.152343.367187.941407.578126 1.570313 1.621094 1.570313 2.820313 0 1.835937-1.46875 3.304687-3.308594 3.304687-1.835938 0-3.308594-1.46875-3.308594-3.304687 0-1.199219.628906-2.242187 1.574219-2.820313.128906-.078124.1875-.230468.148437-.371093-.039062-.144531-.167968-.242188-.316406-.246094-.0625 0-.125.019531-.179687.054687-1.132813.695313-1.886719 1.949219-1.886719 3.382813 0 2.191406 1.777344 3.964844 3.96875 3.964844 2.195312 0 3.96875-1.773438 3.96875-3.964844 0-1.433594-.753906-2.6875-1.886719-3.382813-.054687-.039062-.121093-.054687-.1875-.054687zm0 0" fill="url(#h)"/><path d="m7.933594 4.089844c-.183594.003906-.328125.152344-.324219.335937v.207031c-.003906-.179687.140625-.332031.324219-.332031.089844-.003906.175781.03125.238281.09375s.097656.148438.097656.238281v-.207031c0-.089843-.035156-.175781-.097656-.238281s-.148437-.097656-.238281-.097656zm1.898437.207031c-.105469.003906-.199219.058594-.261719.144531-.058593.085938-.074218.191406-.039062.292969.042969-.132813.164062-.222656.300781-.226563.066407-.003906.132813.015626.1875.050782 1.105469.679687 1.851563 1.894531 1.886719 3.28125 0-.035156 0-.070313 0-.105469 0-1.433594-.753906-2.6875-1.886719-3.382813-.054687-.039062-.121093-.054687-.1875-.054687zm-3.796875 0c-.0625 0-.125.019531-.179687.054687-1.132813.695313-1.886719 1.949219-1.886719 3.382813 0 .035156 0 .070313.003906.105469.035156-1.386719.777344-2.601563 1.882813-3.28125.054687-.035156.117187-.050782.179687-.050782.140625 0 .265625.089844.3125.226563.03125-.101563.015625-.210937-.046875-.296875-.058593-.085938-.160156-.136719-.265625-.140625zm2.234375 3.105469v.210937h1.984375c.144532-.003906.273438.085938.316406.222657.035157-.101563.019532-.210938-.046874-.296876-.0625-.089843-.164063-.136718-.269532-.136718zm-3.636719.433594c-.003906.035156-.003906.070312-.003906.105468 0 1.839844 1.472656 3.308594 3.308594 3.308594 1.839844 0 3.308594-1.46875 3.308594-3.308594 0-.035156 0-.070312 0-.105468-.054688 1.789062-1.503906 3.203124-3.308594 3.203124-1.800781 0-3.25-1.414062-3.304688-3.203124zm0 0" fill="#fff"/><path d="m9.558594 4.792969c-.09375.15625-.039063.355469.117187.449219.898438.554687 1.511719 1.527343 1.566407 2.65625.003906-.054688.003906-.109376.003906-.167969 0-1.199219-.628906-2.238281-1.570313-2.820313-.050781-.027344-.089843-.066406-.117187-.117187zm-3.238282 0c-.027343.050781-.070312.089843-.117187.117187-.945313.582032-1.574219 1.621094-1.574219 2.820313 0 .058593.003906.113281.003906.167969.054688-1.128907.667969-2.101563 1.570313-2.65625.15625-.09375.207031-.292969.117187-.449219zm1.289063 2.9375v.332031c0 .183594.148437.332031.328125.332031h2.316406c.117188 0 .230469-.0625.289063-.164062.0625-.101563.0625-.230469 0-.332031-.058594.101562-.167969.164062-.289063.164062h-2.316406c-.179688 0-.328125-.148438-.328125-.332031zm-3.636719.167969c0 .054687-.003906.109374-.003906.164062 0 2.191406 1.777344 3.96875 3.96875 3.96875 2.195312 0 3.96875-1.777344 3.96875-3.96875 0-.054688 0-.109375-.003906-.164062-.085938 2.117187-1.828125 3.800781-3.964844 3.800781s-3.878906-1.683594-3.964844-3.800781zm0 0" fill-opacity=".235294"/><path d="m959.43595 494.598444c-22.202605.472396-39.681251 18.423437-39.208855 40.626042v400.119276c0 21.730208 17.951042 39.68125 39.68125 39.68125h280.130733c14.171875.472396 27.871355-7.085937 34.957292-19.840625 7.558334-12.282292 7.558334-27.871354 0-40.153646-7.085937-12.282292-20.785417-19.840626-34.957292-19.840626h-239.977086v-359.965629c0-10.865104-4.251563-21.257813-11.809896-28.816146-7.558334-7.558334-17.951042-11.809896-28.816146-11.809896zm229.584377 25.036979c-17.951041.944792-33.067708 12.754688-37.319271 30.233334-4.723958 17.00625 2.834375 34.957292 18.423438 44.405209 113.847397 69.914584 189.903127 196.044273 189.903127 341.069796 0 222.026044-177.620835 399.64688-400.119276 399.64688-222.026044 0-400.119275-177.620836-400.119275-399.64688 0-145.025523 76.05573-271.155212 190.375523-341.069796 15.589062-9.447917 22.675-27.871355 17.951042-44.877605-4.723959-17.478646-20.313021-29.288542-38.264063-29.760938-7.558334 0-15.116667 2.361979-21.730209 6.613542-136.994793 84.086459-228.16719 235.725524-228.16719 409.094797 0 265.014066 214.940107 479.481777 479.954172 479.481777 265.486462 0 479.954173-214.467711 479.954173-479.481777 0-173.369273-91.172397-325.008338-228.16719-409.094797-6.613542-4.723958-14.644271-6.613542-22.675001-6.613542zm0 0" fill="none" stroke="#212121" stroke-linecap="round" stroke-linejoin="round" stroke-width="11.338583" transform="scale(.00826902)"/></svg>

<?xml version="1.0" encoding="UTF-8"?>
<svg xmlns="http://www.w3.org/2000/svg" xmlns:xlink="http://www.w3.org/1999/xlink" width="16pt" height="16pt" viewBox="0 0 16 16" version="1.1">
<defs>
<radialGradient id="radial0" gradientUnits="userSpaceOnUse" cx="450.90894" cy="189.57936" fx="450.90894" fy="189.57936" r="21.166656" gradientTransform="matrix(0.0000000870852,-0.0390662,-0.0703192,-0.0000000507693,22.261576,31.797666)">
<stop offset="0" style="stop-color:rgb(0%,0%,0%);stop-opacity:0.313725;"/>
<stop offset="0.222222" style="stop-color:rgb(0%,0%,0%);stop-opacity:0.27451;"/>
<stop offset="1" style="stop-color:rgb(0%,0%,0%);stop-opacity:0;"/>
</radialGradient>
<radialGradient id="radial1" gradientUnits="userSpaceOnUse" cx="450.90894" cy="189.57936" fx="450.90894" fy="189.57936" r="21.166656" gradientTransform="matrix(-0.0000000870852,0.0390662,0.0703192,0.0000000507693,-6.38506,-3.763741)">
<stop offset="0" style="stop-color:rgb(0%,0%,0%);stop-opacity:0.313725;"/>
<stop offset="0.222222" style="stop-color:rgb(0%,0%,0%);stop-opacity:0.27451;"/>
<stop offset="1" style="stop-color:rgb(0%,0%,0%);stop-opacity:0;"/>
</radialGradient>
<radialGradient id="radial2" gradientUnits="userSpaceOnUse" cx="450.90894" cy="189.57936" fx="450.90894" fy="189.57936" r="21.166656" gradientTransform="matrix(-0.0000000870852,-0.0390662,0.0703192,-0.0000000507693,-6.38506,31.797666)">
<stop offset="0" style="stop-color:rgb(0%,0%,0%);stop-opacity:0.313725;"/>
<stop offset="0.222222" style="stop-color:rgb(0%,0%,0%);stop-opacity:0.27451;"/>
<stop offset="1" style="stop-color:rgb(0%,0%,0%);stop-opacity:0;"/>
</radialGradient>
<radialGradient id="radial3" gradientUnits="userSpaceOnUse" cx="450.90894" cy="189.57936" fx="450.90894" fy="189.57936" r="21.166656" gradientTransform="matrix(0.0000000870852,0.0390662,-0.0703192,0.0000000507693,22.261575,-3.763741)">
<stop offset="0" style="stop-color:rgb(0%,0%,0%);stop-opacity:0.313725;"/>
<stop offset="0.222222" style="stop-color:rgb(0%,0%,0%);stop-opacity:0.27451;"/>
<stop offset="1" style="stop-color:rgb(0%,0%,0%);stop-opacity:0;"/>
</radialGradient>
<linearGradient id="linear0" gradientUnits="userSpaceOnUse" x1="255.32306" y1="233.5" x2="255.32304" y2="254.66666" gradientTransform="matrix(0.00668003,0,0,0.031253,6.232693,6.719392)">
<stop offset="0" style="stop-color:rgb(0%,0%,0%);stop-opacity:0.27451;"/>
<stop offset="1" style="stop-color:rgb(0%,0%,0%);stop-opacity:0;"/>
</linearGradient>
<linearGradient id="linear1" gradientUnits="userSpaceOnUse" x1="254" y1="-168.66667" x2="254" y2="233.5" >
<stop offset="0" style="stop-color:rgb(38.039216%,38.039216%,38.039216%);stop-opacity:1;"/>
<stop offset="1" style="stop-color:rgb(25.882353%,25.882353%,25.882353%);stop-opacity:1;"/>
</linearGradient>
<linearGradient id="linear2" gradientUnits="userSpaceOnUse" x1="960" y1="1695.1182" x2="960" y2="175.11813" gradientTransform="matrix(0.00826902,0,0,0.00826902,0,0)">
<stop offset="0" style="stop-color:rgb(74.117647%,74.117647%,74.117647%);stop-opacity:1;"/>
<stop offset="1" style="stop-color:rgb(87.843137%,87.843137%,87.843137%);stop-opacity:1;"/>
</linearGradient>
</defs>
<g id="surface1">
<path style=" stroke:none;fill-rule:nonzero;fill:url(#radial0);" d="M 9.097656 14.015625 L 10.417969 14.015625 L 10.417969 13.355469 L 9.097656 13.355469 Z M 9.097656 14.015625 "/>
<path style=" stroke:none;fill-rule:nonzero;fill:url(#radial1);" d="M 6.78125 14.015625 L 5.457031 14.015625 L 5.457031 14.679688 L 6.78125 14.679688 Z M 6.78125 14.015625 "/>
<path style=" stroke:none;fill-rule:nonzero;fill:url(#radial2);" d="M 6.78125 14.015625 L 5.457031 14.015625 L 5.457031 13.355469 L 6.78125 13.355469 Z M 6.78125 14.015625 "/>
<path style=" stroke:none;fill-rule:nonzero;fill:url(#radial3);" d="M 9.097656 14.015625 L 10.417969 14.015625 L 10.417969 14.679688 L 9.097656 14.679688 Z M 9.097656 14.015625 "/>
<path style=" stroke:none;fill-rule:nonzero;fill:url(#linear0);" d="M 6.78125 13.851562 L 9.097656 13.851562 L 9.097656 14.679688 L 6.78125 14.679688 Z M 6.78125 13.851562 "/>
<path style="fill-rule:nonzero;fill:url(#linear1);stroke-width:3;stroke-linecap:round;stroke-linejoin:miter;stroke:rgb(20%,20%,20%);stroke-opacity:1;stroke-miterlimit:4;" d="M 253.975747 -168.629428 C 365.090136 -168.629428 455.081542 -78.638022 455.081542 32.476367 C 455.081542 143.465768 365.090136 233.457174 253.975747 233.457174 C 142.986345 233.457174 52.869951 143.465768 52.869951 32.476367 C 52.869951 -78.638022 142.986345 -168.629428 253.975747 -168.629428 Z M 253.975747 -168.629428 " transform="matrix(0.031253,0,0,0.031253,0,6.719392)"/>
<path style=" stroke:none;fill-rule:nonzero;fill:rgb(0%,0%,0%);fill-opacity:0.196078;" d="M 7.9375 14.015625 C 4.457031 14.015625 1.652344 11.214844 1.652344 7.734375 C 1.652344 7.710938 1.652344 7.691406 1.652344 7.671875 C 1.6875 11.125 4.476562 13.894531 7.9375 13.894531 C 11.398438 13.894531 14.191406 11.125 14.222656 7.671875 C 14.222656 7.691406 14.222656 7.710938 14.222656 7.734375 C 14.222656 11.214844 11.417969 14.015625 7.9375 14.015625 Z M 7.9375 14.015625 "/>
<path style=" stroke:none;fill-rule:nonzero;fill:rgb(100%,100%,100%);fill-opacity:0.392157;" d="M 7.9375 1.449219 C 4.457031 1.449219 1.652344 4.25 1.652344 7.734375 C 1.652344 7.753906 1.652344 7.773438 1.652344 7.792969 C 1.6875 4.339844 4.476562 1.570312 7.9375 1.570312 C 11.398438 1.570312 14.191406 4.339844 14.222656 7.792969 C 14.222656 7.773438 14.222656 7.753906 14.222656 7.734375 C 14.222656 4.25 11.417969 1.449219 7.9375 1.449219 Z M 7.9375 1.449219 "/>
<path style=" stroke:none;fill-rule:nonzero;fill:rgb(12.941176%,12.941176%,12.941176%);fill-opacity:1;" d="M 7.9375 1.402344 C 4.429688 1.402344 1.605469 4.226562 1.605469 7.734375 C 1.605469 11.238281 4.429688 14.0625 7.9375 14.0625 C 11.445312 14.0625 14.269531 11.238281 14.269531 7.734375 C 14.269531 4.226562 11.445312 1.402344 7.9375 1.402344 Z M 7.9375 1.496094 C 11.394531 1.496094 14.175781 4.277344 14.175781 7.734375 C 14.175781 11.1875 11.394531 13.96875 7.9375 13.96875 C 4.480469 13.96875 1.699219 11.1875 1.699219 7.734375 C 1.699219 4.277344 4.480469 1.496094 7.9375 1.496094 Z M 7.9375 1.496094 "/>
<path style=" stroke:none;fill-rule:nonzero;fill:url(#linear2);" d="M 7.933594 4.089844 C 7.75 4.09375 7.605469 4.242188 7.609375 4.425781 L 7.609375 7.734375 C 7.609375 7.914062 7.757812 8.0625 7.9375 8.0625 L 10.253906 8.0625 C 10.371094 8.066406 10.484375 8.003906 10.542969 7.898438 C 10.605469 7.796875 10.605469 7.667969 10.542969 7.566406 C 10.484375 7.464844 10.371094 7.402344 10.253906 7.402344 L 8.269531 7.402344 L 8.269531 4.425781 C 8.269531 4.335938 8.234375 4.25 8.171875 4.1875 C 8.109375 4.125 8.023438 4.089844 7.933594 4.089844 Z M 9.832031 4.296875 C 9.683594 4.304688 9.558594 4.402344 9.523438 4.546875 C 9.484375 4.6875 9.546875 4.835938 9.675781 4.914062 C 10.617188 5.492188 11.246094 6.535156 11.246094 7.734375 C 11.246094 9.570312 9.777344 11.039062 7.9375 11.039062 C 6.101562 11.039062 4.628906 9.570312 4.628906 7.734375 C 4.628906 6.535156 5.257812 5.492188 6.203125 4.914062 C 6.332031 4.835938 6.390625 4.683594 6.351562 4.542969 C 6.3125 4.398438 6.183594 4.300781 6.035156 4.296875 C 5.972656 4.296875 5.910156 4.316406 5.855469 4.351562 C 4.722656 5.046875 3.96875 6.300781 3.96875 7.734375 C 3.96875 9.925781 5.746094 11.699219 7.9375 11.699219 C 10.132812 11.699219 11.90625 9.925781 11.90625 7.734375 C 11.90625 6.300781 11.152344 5.046875 10.019531 4.351562 C 9.964844 4.3125 9.898438 4.296875 9.832031 4.296875 Z M 9.832031 4.296875 "/>
<path style=" stroke:none;fill-rule:nonzero;fill:rgb(100%,100%,100%);fill-opacity:1;" d="M 7.933594 4.089844 C 7.75 4.09375 7.605469 4.242188 7.609375 4.425781 L 7.609375 4.632812 C 7.605469 4.453125 7.75 4.300781 7.933594 4.300781 C 8.023438 4.296875 8.109375 4.332031 8.171875 4.394531 C 8.234375 4.457031 8.269531 4.542969 8.269531 4.632812 L 8.269531 4.425781 C 8.269531 4.335938 8.234375 4.25 8.171875 4.1875 C 8.109375 4.125 8.023438 4.089844 7.933594 4.089844 Z M 9.832031 4.296875 C 9.726562 4.300781 9.632812 4.355469 9.570312 4.441406 C 9.511719 4.527344 9.496094 4.632812 9.53125 4.734375 C 9.574219 4.601562 9.695312 4.511719 9.832031 4.507812 C 9.898438 4.503906 9.964844 4.523438 10.019531 4.558594 C 11.125 5.238281 11.871094 6.453125 11.90625 7.839844 C 11.90625 7.804688 11.90625 7.769531 11.90625 7.734375 C 11.90625 6.300781 11.152344 5.046875 10.019531 4.351562 C 9.964844 4.3125 9.898438 4.296875 9.832031 4.296875 Z M 6.035156 4.296875 C 5.972656 4.296875 5.910156 4.316406 5.855469 4.351562 C 4.722656 5.046875 3.96875 6.300781 3.96875 7.734375 C 3.96875 7.769531 3.96875 7.804688 3.972656 7.839844 C 4.007812 6.453125 4.75 5.238281 5.855469 4.558594 C 5.910156 4.523438 5.972656 4.507812 6.035156 4.507812 C 6.175781 4.507812 6.300781 4.597656 6.347656 4.734375 C 6.378906 4.632812 6.363281 4.523438 6.300781 4.4375 C 6.242188 4.351562 6.140625 4.300781 6.035156 4.296875 Z M 8.269531 7.402344 L 8.269531 7.613281 L 10.253906 7.613281 C 10.398438 7.609375 10.527344 7.699219 10.570312 7.835938 C 10.605469 7.734375 10.589844 7.625 10.523438 7.539062 C 10.460938 7.449219 10.359375 7.402344 10.253906 7.402344 Z M 4.632812 7.835938 C 4.628906 7.871094 4.628906 7.90625 4.628906 7.941406 C 4.628906 9.78125 6.101562 11.25 7.9375 11.25 C 9.777344 11.25 11.246094 9.78125 11.246094 7.941406 C 11.246094 7.90625 11.246094 7.871094 11.246094 7.835938 C 11.191406 9.625 9.742188 11.039062 7.9375 11.039062 C 6.136719 11.039062 4.6875 9.625 4.632812 7.835938 Z M 4.632812 7.835938 "/>
<path style=" stroke:none;fill-rule:nonzero;fill:rgb(0%,0%,0%);fill-opacity:0.235294;" d="M 9.558594 4.792969 C 9.464844 4.949219 9.519531 5.148438 9.675781 5.242188 C 10.574219 5.796875 11.1875 6.769531 11.242188 7.898438 C 11.246094 7.84375 11.246094 7.789062 11.246094 7.730469 C 11.246094 6.53125 10.617188 5.492188 9.675781 4.910156 C 9.625 4.882812 9.585938 4.84375 9.558594 4.792969 Z M 6.320312 4.792969 C 6.292969 4.84375 6.25 4.882812 6.203125 4.910156 C 5.257812 5.492188 4.628906 6.53125 4.628906 7.730469 C 4.628906 7.789062 4.632812 7.84375 4.632812 7.898438 C 4.6875 6.769531 5.300781 5.796875 6.203125 5.242188 C 6.359375 5.148438 6.410156 4.949219 6.320312 4.792969 Z M 7.609375 7.730469 L 7.609375 8.0625 C 7.609375 8.246094 7.757812 8.394531 7.9375 8.394531 L 10.253906 8.394531 C 10.371094 8.394531 10.484375 8.332031 10.542969 8.230469 C 10.605469 8.128906 10.605469 8 10.542969 7.898438 C 10.484375 8 10.375 8.0625 10.253906 8.0625 L 7.9375 8.0625 C 7.757812 8.0625 7.609375 7.914062 7.609375 7.730469 Z M 3.972656 7.898438 C 3.972656 7.953125 3.96875 8.007812 3.96875 8.0625 C 3.96875 10.253906 5.746094 12.03125 7.9375 12.03125 C 10.132812 12.03125 11.90625 10.253906 11.90625 8.0625 C 11.90625 8.007812 11.90625 7.953125 11.902344 7.898438 C 11.816406 10.015625 10.074219 11.699219 7.9375 11.699219 C 5.800781 11.699219 4.058594 10.015625 3.972656 7.898438 Z M 3.972656 7.898438 "/>
<path style="fill:none;stroke-width:11.338583;stroke-linecap:round;stroke-linejoin:round;stroke:rgb(12.941176%,12.941176%,12.941176%);stroke-opacity:1;stroke-miterlimit:4;" d="M 959.43595 494.598444 C 937.233345 495.07084 919.754699 513.021881 920.227095 535.224486 L 920.227095 935.343762 C 920.227095 957.07397 938.178137 975.025012 959.908345 975.025012 L 1240.039078 975.025012 C 1254.210953 975.497408 1267.910433 967.939075 1274.99637 955.184387 C 1282.554704 942.902095 1282.554704 927.313033 1274.99637 915.030741 C 1267.910433 902.748449 1254.210953 895.190115 1240.039078 895.190115 L 1000.061992 895.190115 L 1000.061992 535.224486 C 1000.061992 524.359382 995.810429 513.966673 988.252096 506.40834 C 980.693762 498.850006 970.301054 494.598444 959.43595 494.598444 Z M 1189.020327 519.635423 C 1171.069286 520.580215 1155.952619 532.390111 1151.701056 549.868757 C 1146.977098 566.875007 1154.535431 584.826049 1170.124494 594.273966 C 1283.971891 664.18855 1360.027621 790.318239 1360.027621 935.343762 C 1360.027621 1157.369806 1182.406786 1334.990642 959.908345 1334.990642 C 737.882301 1334.990642 559.78907 1157.369806 559.78907 935.343762 C 559.78907 790.318239 635.8448 664.18855 750.164593 594.273966 C 765.753655 584.826049 772.839593 566.402611 768.115635 549.396361 C 763.391676 531.917715 747.802614 520.107819 729.851572 519.635423 C 722.293238 519.635423 714.734905 521.997402 708.121363 526.248965 C 571.12657 610.335424 479.954173 761.974489 479.954173 935.343762 C 479.954173 1200.357828 694.89428 1414.825539 959.908345 1414.825539 C 1225.394807 1414.825539 1439.862518 1200.357828 1439.862518 935.343762 C 1439.862518 761.974489 1348.690121 610.335424 1211.695328 526.248965 C 1205.081786 521.525007 1197.051057 519.635423 1189.020327 519.635423 Z M 1189.020327 519.635423 " transform="matrix(0.00826902,0,0,0.00826902,0,0)"/>
</g>
</svg>
